X:1
T:Credi Dei verbo
T:Daniel Friderici
T:Source : Bicinia sacra---Rostock--J.Richelius---1642. Editor : André Vierendeels (28/06/17).
T:Notes : Original clefs : G2, G2 Editorial accidentals above the staff m 8  in S 2 :one whole note too many in original print
T:Credi Dei verbo
T:©
T:©
T:©
C:Daniel Friderici
Z:©
%%score [ 1 2 ]
L:1/8
Q:1/4=120
M:2/2
K:F
V:1 treble nm="Soprano 1" snm="S 1"
V:2 treble nm="Soprano 2" snm="S 2"
V:1
 d3 d c2 c2 | B4 A4 | d3 d c2 c2 | B4 A4 | G6 A2 | B8 | A4 =B4 | c4 d4 | B2 c2 d2 c2 | %9
w: Cre- di De- i|ver- bo,|cre- di De- i|ver- bo,|Tho- *||ma, cur|si- gna|re- qui- * *|
 B2 A2 G2 A2 | B2 c2 d4- | d2 ^cB c4 |[M:2/4] d4 :: z2 G2 |[M:2/2] d4 A2 A2 | c4 G2 G2 | B4 F4 | %17
w: |||ris:|non|si- gnis, non|si- gnis, non|si- gnis,|
 f2 d2 c3 c | B2 A4 G2- | G2 ^F2 G4 | G2 B2 A3 A | G2 c4 B2 | A4 G2 GA | Bcde f2 d2 | gf_ed cBAG | %25
w: ver- bo ni- ti-|tur al- ma|_ fi- des,|ver- bo ni- ti-|tur al- ma|fi- des, al- *|* * * * * ma|fi- * * * * * * *|
 ^F2 G4 F2 | G8 :| %27
w: |des.|
V:2
 z8 | d3 d c2 c2 | B4 A4 | d3 d c2 c2 | B4 A4 | G8 | ^F4 G4 | A4 B4 | G2 A2 B2 c2 | d2 c2 B2 A2 | %10
w: |Cre- di De- i|ver- bo,|cre- di De- i|ver- bo,|Tho-|ma, cur|si- gna|re- * * *|qui- * * *|
 G2 F2 F2 ED | E8 |[M:2/4] D4 :: z2 d2 |[M:2/2] =B4 c2 c2 | A4 B2 B2 | G4 A4 | B2 B2 A3 A | %18
w: ||ris:|non|si- gnis, non|si- gnis, non|si- gnis,|ver- bo ni- ti-|
 G2 c4 B2 | A4 G4 | d2 d2 c3 c | B2 A4 G2- | G2 ^F2 G4 | GABc de f2 | c2 gf _edcB | A2 G2 A4 | %26
w: tur al- ma|fi- des,|ver- bo ni- ti-|tur al- ma|_ fi- des,|al- * * * * * *|ma fi- * * * * *||
 G8 :| %27
w: des.|

